X: 1
T: Quay Pit, The
M: 4/4
L: 1/8
R: reel
K: Bmin
FB~B2 FB^DB|cAFA EA(3cBA|FB~B2 GB~B2|c=dec {e}dcBA|
FB~B2 fB~B2|cAFA EA(3cBA|dAAe AAfA|FB{c}BA B2{c}BA|
FB~B2 fB^df|cAFA EFAc|AB{c}BA F=d~d2|czec {e}dcde|
fB~B2 ABDB|cAFA EA(3cBA|dAAe AAfA|FB{c}BA B2Bc||
d2(3efg ab{c\'i}ba|ge{f}ed eA(3cBA|d2(3efg addb|ddc\'id gece|
d2(3efg ab{c\'i}ba|ge{f}ed eA(3cBA|dAAe AAfA|FB{c}BA B2Bc|
d2(3efg ab{c\'i}ba|ge{f}ed eA(3cBA|d2(3ded AddB|ddcd gece|
d2(3efg ab{c\'i}ba|ge{f}ed eA(3cBA|dAAe AAfA|FB{c}BA B2B2||
|:ge~e2 ge~e2|fd~d2 BdFd|EeeB dcBB|DddA Bdef|
ge~e2 GeBe|fd~d2 FA{c}BA|dAAe AAfA|FB{c}BA B2B2:|
|:gabg {b}agfd|cFFf FFcF|FfcF eBEc|DddA Bdef|
gb~b2 agfd|cFFf FA{c}BA|dAAe AAfA|FB{c}BA B2B2:|
